svgs/light/boxes-packing.svg

<svg xmlns="http://www.w3.org/2000/svg" viewBox="0 0 640 512"><!--! Font Awesome Pro 6.6.0 by @fontawesome - https://fontawesome.com License - https://fontawesome.com/license (Commercial License) Copyright 2024 Fonticons, Inc. --><path d="M592 32L304 32c-8.8 0-16 7.2-16 16l0 80-32 0 0-80c0-26.5 21.5-48 48-48L592 0c26.5 0 48 21.5 48 48l0 416c0 26.5-21.5 48-48 48l-210.7 0c1.8-5 2.7-10.4 2.7-16l0-16 208 0c8.8 0 16-7.2 16-16l0-416c0-8.8-7.2-16-16-16zM555.3 316.7c6.2 6.2 6.2 16.4 0 22.6s-16.4 6.2-22.6 0L496 302.6 496 432c0 8.8-7.2 16-16 16s-16-7.2-16-16l0-129.4-36.7 36.7c-6.2 6.2-16.4 6.2-22.6 0s-6.2-16.4 0-22.6l64-64c6.2-6.2 16.4-6.2 22.6 0l64 64zM352 192L32 192l0 64 32 0 256 0 32 0 0-64zM0 256l0-64c0-17.7 14.3-32 32-32l320 0c17.7 0 32 14.3 32 32l0 64c0 17.7-14.3 32-32 32l0 192c0 17.7-14.3 32-32 32L64 512c-17.7 0-32-14.3-32-32l0-192c-17.7 0-32-14.3-32-32zm64 32l0 192 256 0 0-192L64 288zm80 32l96 0c8.8 0 16 7.2 16 16s-7.2 16-16 16l-96 0c-8.8 0-16-7.2-16-16s7.2-16 16-16z"/></svg>

<svg xmlns="http://www.w3.org/2000/svg" viewBox="0 0 640 512"><!--! Font Awesome Pro 6.4.0 by @fontawesome - https://fontawesome.com License - https://fontawesome.com/license (Commercial License) Copyright 2023 Fonticons, Inc. --><path d="M592 32H304c-8.8 0-16 7.2-16 16v80H256V48c0-26.5 21.5-48 48-48H592c26.5 0 48 21.5 48 48V464c0 26.5-21.5 48-48 48H381.3c1.8-5 2.7-10.4 2.7-16V480H592c8.8 0 16-7.2 16-16V48c0-8.8-7.2-16-16-16zM555.3 316.7c6.2 6.2 6.2 16.4 0 22.6s-16.4 6.2-22.6 0L496 302.6V432c0 8.8-7.2 16-16 16s-16-7.2-16-16V302.6l-36.7 36.7c-6.2 6.2-16.4 6.2-22.6 0s-6.2-16.4 0-22.6l64-64c6.2-6.2 16.4-6.2 22.6 0l64 64zM352 192H32l0 64H64 320h32V192zM0 256V192c0-17.7 14.3-32 32-32H352c17.7 0 32 14.3 32 32v64c0 17.7-14.3 32-32 32V480c0 17.7-14.3 32-32 32H64c-17.7 0-32-14.3-32-32l0-192c-17.7 0-32-14.3-32-32zm64 32V480H320V288H64zm80 32h96c8.8 0 16 7.2 16 16s-7.2 16-16 16H144c-8.8 0-16-7.2-16-16s7.2-16 16-16z"/></svg>
